X:1
T:Title
L:1/8
M:4/4
I:linebreak $
K:A
V:1 treble nm="Voice"
V:1
"A" Acef feae | cAAc"E" BEGB |"A" Acef feae | ce"E"Be"A" cA A2 |"A" Acef feae | cAAc"E" BEGB | %6
"A" Acef feae |1 cA"E"Bd"A" cA A2 :|2 cA"E"Bd"A" cAGA |:"E" B2 Ac BEGB |"A" AcBA cAGA | %11
"E" BcAc BEGB |1"A" AcBd cAGA :|2"A" AcBd cAEA |] %14
